X:1
T:Title
%%score { 1 | 2 }
L:1/8
Q:1/4=100
M:4/4
K:C
V:1 treble nm="Grand Piano"
V:2 bass 
V:1
 [EG]2 [EG]2 [EG]2 [CE][DF] | [EG]2 [Ec]2 [Ge]2 [Gc]2 | d2 d2 B2 AB | [Ec]2 [FA]2 [EG]4 | %4
w: B.~D.~Ackley * * * *||||
 [EG]2 [EG]2 [EG]2 [CE][DF] | [EG]2 [Ec]2 [Ge]2 [Gc]2 | B2 d2 d2 G[GA] | %7
w: |||
[M:7/8] [GB]2 [^FA]2 [DG]3 |[M:1/4] [FG]2 |[M:4/4] [Ec]4 [Ge]2 [Ec]2 | [FA]2 [EG]2 [CE]2 [Ec]2 | %11
w: ||||
 d4 c2 d2 | [Ge]2 [Ec]2 [EG]2 [EG]2 | A4 c2 A2 | [EG]2 [EG]2 [Gc]2 [Ge]2 | d2 dd c2 [FB]2 | %16
w: |||||
 [Ec]6 z2 |] %17
w: |
V:2
 [C,C]2 [C,C]2 [C,C]2 [C,G,][C,G,] | [C,C]2 [C,G,]2 [C,C]2 [C,C]2 | %2
 [G,B,F]2 [G,B,F]2 [G,DF]2 [G,CF][G,F] | [C,G,]2 [C,C]2 [C,C]4 | %4
 [C,C]2 [C,C]2 [C,C]2 [C,G,][C,G,] | [C,C]2 [C,G,]2 [C,C]2 [E,C]2 | %6
 [G,DG]2 [G,B,G]2 [G,B,G]2[K:bass] [E,B,][E,^C] |[M:7/8] [D,D]2 [D,C]2 [G,B,]3 |[M:1/4] [G,B,]2 | %9
[M:4/4] [C,G,]4 [C,C]2 [C,G,]2 | [C,C]2 [C,C]2 [C,G,]2 [C,G,]2 | [G,B,F]4 [A,CE]2 [G,B,G]2 | %12
 [C,C]2 [C,G,]2 [C,C]2 [C,C]2 | [F,CF]4 [F,A,F]2 [F,CF]2 | [C,C]2 [C,C]2 [E,C]2 [C,C]2 | %15
 [F,A,F]2 [F,A,F][F,A,F] [G,E]2 [G,,G,]2 | [C,G,]6 z2 |] %17

